X:940
T:Reel 940
M:4/4
K:Gmaj
L:1/8
B|GBdf ecdB|GBdg bgaf|gBdf eccB|cdef gfed|GBdf ecdB|GBdf gbaf|gefd ecdB|cBAB c2|dB|dgfg abc'a|d'bgb c'afa| (3gag af gfeg|dcBc GB (3def |gabg fgaf|gabg afdf|gbc'b d'c'bc'|d'bc'a bggf|
